Misc/folder.svg

<svg xmlns="http://www.w3.org/2000/svg" viewBox="0 0 1200 800" preserveAspectRatio="none" width="1200" height="800">
 <path d="M0,0H1200V800H0Z" style="fill: white;"></path>
 <g>
  <g transform="translate(120,80)">
   <path d="M0,0H960V640H0Z" style="fill: white; stroke: black; stroke-width: 1;"></path>
   <svg x="0" y="0" overflow="hidden" width="960" height="640" viewBox="0 0 960 640">
    <g>
     <path d="M9,604h4M11,600v8M13,572h6M16,566v12M18,567h4M20,560v14M22,532h6M25,524v16M27,532h4M29,524v17M31,522h6M34,514v17M36,514h4M38,505v18M40,497h6M43,487v20M45,487h4M47,477v19M49,492h6M52,481v21M54,480h4M56,469v21M58,464h6M61,453v22M63,459h4M65,448v22M67,472h4M69,462v21M71,465h6M74,454v22M76,433h4M78,421v23M80,442h6M83,431v23M85,451h4M87,439v23M89,448h6M92,436v24M94,437h4M96,425v24M98,432h6M101,420v25M103,411h4M105,399v24M107,391h6M110,379v25M112,406h4M114,394v25M116,371h6M119,358v26M121,369h4M123,356v26M125,355h4M127,342v26M129,333h6M132,320v26M134,296h4M136,283v27M138,232h6M141,218v28M143,149h4M145,134v30M147,79h6M150,63v31M152,46h4M154,30v32M156,78h6M159,63v31M161,163h4M163,148v30M165,238h6M168,224v29M170,252h4M172,237v29M174,297h6M177,283v29M179,328h4M181,315v27M183,343h6M186,329v28M188,343h4M190,329v28M192,343h4M194,329v28M196,346h6M199,332v28M201,341h4M203,327v28M205,350h6M208,336v28M210,361h4M212,347v28M214,335h6M217,321v29M219,357h4M221,343v29M223,359h6M226,344v29M228,348h4M230,333v29M232,366h6M235,351v29M237,368h4M239,354v28M241,342h6M244,328v29M246,351h4M248,336v29M250,367h6M253,353v29M255,358h4M257,344v29M259,358h4M261,343v29M263,347h6M266,333v29M268,374h4M270,360v29M272,385h6M275,370v29M277,383h4M279,368v29M281,363h6M284,349v29M286,337h4M288,323v29M290,358h6M293,343v29M295,339h4M297,324v30M299,352h6M302,337v30M304,332h4M306,317v30M308,362h6M311,347v30M313,354h4M315,339v30M317,347h4M319,332v30M321,358h6M324,343v30M326,327h4M328,312v30M330,338h6M333,322v31M335,344h4M337,329v31M339,353h6M342,337v31M344,336h4M346,321v30M348,350h6M351,334v31M353,362h4M355,347v30M357,363h6M360,348v30M362,325h4M364,309v31M366,338h6M369,323v31M371,327h4M373,312v31M375,331h6M378,316v31M380,321h4M382,305v31M384,286h4M386,270v32M388,310h6M391,294v32M393,320h4M395,305v31M397,354h6M400,339v31M402,330h4M404,315v31M406,334h6M409,319v31M411,323h4M413,307v32M415,310h6M418,294v32M420,293h4M422,277v32M424,299h6M427,283v32M429,303h4M431,287v32M433,301h6M436,285v32M438,308h4M440,292v32M442,291h6M445,275v32M447,298h4M449,282v32M451,309h4M453,293v32M455,314h6M458,298v32M460,303h4M462,287v32M464,326h6M467,310v32M469,288h4M471,271v33M473,311h6M476,295v32M478,331h4M480,315v32M482,313h6M485,297v32M487,302h4M489,286v32M491,279h6M494,263v32M496,279h4M498,263v33M500,274h6M503,258v33M505,297h4M507,281v33M509,303h4M511,286v33M513,271h6M516,254v33M518,287h4M520,271v33M522,321h6M525,304v33M527,291h4M529,274v33M531,296h6M534,280v33M536,301h4M538,285v33M540,277h6M543,261v33M545,296h4M547,280v33M549,326h6M552,310v33M554,317h4M556,300v33M558,296h6M561,279v33M563,292h4M565,275v33M567,319h6M570,302v33M572,313h4M574,297v33M576,293h4M578,277v33M580,320h6M583,303v33M585,311h4M587,294v33M589,307h6M592,290v34M594,308h4M596,291v34M598,294h6M601,277v34M603,335h4M605,318v34M607,321h6M610,305v33M612,316h4M614,299v34M616,336h6M619,319v34M621,350h4M623,333v33M625,344h6M628,327v33M630,336h4M632,319v33M634,336h6M637,319v34M639,321h4M641,304v34M643,354h4M645,337v33M647,316h6M650,300v33M652,335h4M654,318v34M656,334h6M659,317v34M661,338h4M663,321v34M665,361h6M668,344v33M670,340h4M672,323v34M674,315h6M677,298v34M679,351h4M681,335v33M683,369h6M686,352v33M688,346h4M690,329v34M692,369h6M695,353v33M697,334h4M699,317v34M701,373h4M703,357v33M705,340h6M708,323v34M710,351h4M712,335v33M714,364h6M717,347v33M719,379h4M721,362v33M723,367h6M726,350v34M728,373h4M730,357v33M732,361h6M735,345v33M737,350h4M739,334v33M741,382h6M744,365v34M746,348h4M748,331v34M750,362h6M753,345v34M755,332h4M757,315v34M759,390h6M762,373v34M764,354h4M766,338v33M768,377h4M770,360v34M772,367h6M775,351v33M777,364h4M779,347v34M781,352h6M784,335v34M786,372h4M788,355v34M790,371h6M793,354v33M795,362h4M797,345v34M799,375h6M802,358v34M804,389h4M806,372v34M808,354h6M811,337v34M813,417h4M815,400v33M817,384h6M820,367v34M822,388h4M824,371v34M826,371h6M829,354v33M831,383h4M833,366v34M835,388h4M837,372v33M839,379h6M842,362v34M844,417h4M846,400v34M848,383h6M851,366v34M853,399h4M855,382v34M857,419h6M860,403v33M862,389h4M864,372v34M866,371h6M869,354v34M871,373h4M873,356v34M875,392h6M878,375v34M880,387h4M882,370v34M884,379h6M887,362v34M889,399h4M891,382v34M893,375h4M895,358v34M897,398h6M900,381v34M902,378h4M904,361v34M906,365h6M909,348v34M911,388h4M913,371v34M915,404h6M918,387v34M920,379h4M922,362v34M924,372h6M927,355v34M929,411h4M931,394v34M933,377h6M936,360v34M938,382h4M940,365v34M942,394h6M945,377v34M947,386h4M949,369v34M951,409h6M954,392v34M956,355h4M958,337v35" style="stroke: #00009a; stroke-width: 1;"></path>
    </g>
    <g>
     <path d="M67,448l4,-2l3,-3l4,-2l3,-3l4,-3l4,-3l3,-3l4,-4l3,-4l4,-4l3,-5l4,-6l4,-7l3,-9l4,-10l3,-14l4,-17l3,-23l4,-31l4,-40l3,-51l4,-58l3,-52l4,-32l3,2l4,34l4,52l3,54l4,46l3,35l4,26l3,19l4,13l4,10l3,7l4,5l3,4l4,2l3,2l4,2l4,1h3h4h3h4l4,-1h3l4,-1l3,-1l4,-1l3,-1l4,-1l4,-1l3,-1l4,-1l3,-1l4,-1l3,-1l4,-2l4,-1l3,-1l4,-2l3,-1l4,-1l3,-2l4,-1l4,-1l3,-2l4,-1l3,-2l4,-1l3,-2l4,-1l4,-1l3,-2l4,-1l3,-2l4,-1l3,-2l4,-1l4,-2l3,-1l4,-2l3,-1l4,-2l3,-1l4,-1l4,-2l3,-1l4,-2l3,-1l4,-2l3,-1l4,-2l4,-1l3,-2l4,-1l3,-2l4,-1l3,-2" style="fill: none; stroke: red; stroke-width: 2;"></path>
    </g>
   </svg>
   <g>
    <g transform="translate(0,640)">
     <path d="M0,0h960M0,-12V0M22,-12V0M45,-12V0M67,-24V0M89,-12V0M112,-12V0M134,-12V0M156,-24V0M179,-12V0M201,-12V0M223,-12V0M246,-24V0M268,-12V0M290,-12V0M313,-12V0M335,-24V0M357,-12V0M380,-12V0M402,-12V0M424,-24V0M447,-12V0M469,-12V0M491,-12V0M513,-24V0M536,-12V0M558,-12V0M580,-12V0M603,-24V0M625,-12V0M647,-12V0M670,-12V0M692,-24V0M714,-12V0M737,-12V0M759,-12V0M781,-24V0M804,-12V0M826,-12V0M848,-12V0M871,-24V0M893,-12V0M915,-12V0M938,-12V0" style="stroke: black; stroke-width: 1;"></path>
     <g font-family="Arial" font-size="28" space="preserve" fill="black" text-anchor="middle">
      <text dy=".8em" transform="translate(67,1)">
       1
      </text>
      <text dy=".8em" transform="translate(156,1)">
       1.02
      </text>
      <text dy=".8em" transform="translate(246,1)">
       1.04
      </text>
      <text dy=".8em" transform="translate(335,1)">
       1.06
      </text>
      <text dy=".8em" transform="translate(424,1)">
       1.08
      </text>
      <text dy=".8em" transform="translate(513,1)">
       1.10
      </text>
      <text dy=".8em" transform="translate(603,1)">
       1.12
      </text>
      <text dy=".8em" transform="translate(692,1)">
       1.14
      </text>
      <text dy=".8em" transform="translate(781,1)">
       1.16
      </text>
      <text dy=".8em" transform="translate(871,1)">
       1.18
      </text>
     </g>
    </g>
    <g>
     <path d="M0,0v640M36,640H0M18,620H0M18,600H0M18,580H0M18,560H0M36,540H0M18,519H0M18,499H0M18,479H0M18,459H0M36,439H0M18,419H0M18,399H0M18,379H0M18,359H0M36,339H0M18,319H0M18,298H0M18,278H0M18,258H0M36,238H0M18,218H0M18,198H0M18,178H0M18,158H0M36,138H0M18,118H0M18,97H0M18,77H0M18,57H0M36,37H0M18,17H0" style="stroke: black; stroke-width: 1;"></path>
     <g font-family="Arial" font-size="28" space="preserve" fill="black" text-anchor="end">
      <text dy=".4em" transform="translate(-4,640)">
       0
      </text>
      <text dy=".4em" transform="translate(-4,540)">
       500
      </text>
      <text dy=".4em" transform="translate(-4,439)">
       1000
      </text>
      <text dy=".4em" transform="translate(-4,339)">
       1500
      </text>
      <text dy=".4em" transform="translate(-4,238)">
       2000
      </text>
      <text dy=".4em" transform="translate(-4,138)">
       2500
      </text>
      <text dy=".4em" transform="translate(-4,37)">
       3000
      </text>
     </g>
    </g>
   </g>
  </g>
  <g transform="translate(120,4)" font-family="Arial" font-size="40" space="preserve">
   <text fill="black" text-anchor="middle" dy=".8em" transform="translate(480)">
    projection
   </text>
  </g>
  <g transform="translate(936,52)" font-family="Arial" font-size="20" space="preserve" fill="black">
   <path d="M0,0H240V128H0Z" style="fill: white; stroke: black; stroke-width: 1;"></path>
   <text text-anchor="middle" dy=".4em" transform="translate(120,16)">
    hSignal
   </text>
   <text text-anchor="start" dy=".4em" transform="translate(12,48)">
    Entries
   </text>
   <text text-anchor="end" dy=".4em" transform="translate(228,48)">
    73245.49
   </text>
   <text text-anchor="start" dy=".4em" transform="translate(12,80)">
    Mean
   </text>
   <text text-anchor="end" dy=".4em" transform="translate(228,80)">
    1.095
   </text>
   <text text-anchor="start" dy=".4em" transform="translate(12,112)">
    Std Dev
   </text>
   <text text-anchor="end" dy=".4em" transform="translate(228,112)">
    0.05745
   </text>
   <path d="M0,32h240" style="stroke: black; stroke-width: 1;"></path>
  </g>
 </g>
</svg>

<svg xmlns="http://www.w3.org/2000/svg" viewBox="0 0 1200 800" preserveAspectRatio="none" width="1200" height="800">
 <path d="M0,0H1200V800H0Z" style="fill: white;"></path>
 <g>
  <g transform="translate(120,80)">
   <path d="M0,0H960V640H0Z" style="fill: white; stroke: black; stroke-width: 1;"></path>
   <svg x="0" y="0" overflow="hidden" width="960" height="640" viewBox="0 0 960 640">
    <g>
     <path d="M9,604h4M11,600v8M13,572h6M16,566v12M18,567h4M20,560v14M22,532h6M25,524v16M27,532h4M29,524v17M31,522h6M34,514v17M36,514h4M38,505v18M40,497h6M43,487v20M45,487h4M47,477v19M49,492h6M52,481v21M54,480h4M56,469v21M58,464h6M61,453v22M63,459h4M65,448v22M67,472h4M69,462v21M71,465h6M74,454v22M76,433h4M78,421v23M80,442h6M83,431v23M85,451h4M87,439v23M89,448h6M92,436v24M94,437h4M96,425v24M98,432h6M101,420v25M103,411h4M105,399v24M107,391h6M110,379v25M112,406h4M114,394v25M116,371h6M119,358v26M121,369h4M123,356v26M125,355h4M127,342v26M129,333h6M132,320v26M134,296h4M136,283v27M138,232h6M141,218v28M143,149h4M145,134v30M147,79h6M150,63v31M152,46h4M154,30v32M156,78h6M159,63v31M161,163h4M163,148v30M165,238h6M168,224v29M170,252h4M172,237v29M174,297h6M177,283v29M179,328h4M181,315v27M183,343h6M186,329v28M188,343h4M190,329v28M192,343h4M194,329v28M196,346h6M199,332v28M201,341h4M203,327v28M205,350h6M208,336v28M210,361h4M212,347v28M214,335h6M217,321v29M219,357h4M221,343v29M223,359h6M226,344v29M228,348h4M230,333v29M232,366h6M235,351v29M237,368h4M239,354v28M241,342h6M244,328v29M246,351h4M248,336v29M250,367h6M253,353v29M255,358h4M257,344v29M259,358h4M261,343v29M263,347h6M266,333v29M268,374h4M270,360v29M272,385h6M275,370v29M277,383h4M279,368v29M281,363h6M284,349v29M286,337h4M288,323v29M290,358h6M293,343v29M295,339h4M297,324v30M299,352h6M302,337v30M304,332h4M306,317v30M308,362h6M311,347v30M313,354h4M315,339v30M317,347h4M319,332v30M321,358h6M324,343v30M326,327h4M328,312v30M330,338h6M333,322v31M335,344h4M337,329v31M339,353h6M342,337v31M344,336h4M346,321v30M348,350h6M351,334v31M353,362h4M355,347v30M357,363h6M360,348v30M362,325h4M364,309v31M366,338h6M369,323v31M371,327h4M373,312v31M375,331h6M378,316v31M380,321h4M382,305v31M384,286h4M386,270v32M388,310h6M391,294v32M393,320h4M395,305v31M397,354h6M400,339v31M402,330h4M404,315v31M406,334h6M409,319v31M411,323h4M413,307v32M415,310h6M418,294v32M420,293h4M422,277v32M424,299h6M427,283v32M429,303h4M431,287v32M433,301h6M436,285v32M438,308h4M440,292v32M442,291h6M445,275v32M447,298h4M449,282v32M451,309h4M453,293v32M455,314h6M458,298v32M460,303h4M462,287v32M464,326h6M467,310v32M469,288h4M471,271v33M473,311h6M476,295v32M478,331h4M480,315v32M482,313h6M485,297v32M487,302h4M489,286v32M491,279h6M494,263v32M496,279h4M498,263v33M500,274h6M503,258v33M505,297h4M507,281v33M509,303h4M511,286v33M513,271h6M516,254v33M518,287h4M520,271v33M522,321h6M525,304v33M527,291h4M529,274v33M531,296h6M534,280v33M536,301h4M538,285v33M540,277h6M543,261v33M545,296h4M547,280v33M549,326h6M552,310v33M554,317h4M556,300v33M558,296h6M561,279v33M563,292h4M565,275v33M567,319h6M570,302v33M572,313h4M574,297v33M576,293h4M578,277v33M580,320h6M583,303v33M585,311h4M587,294v33M589,307h6M592,290v34M594,308h4M596,291v34M598,294h6M601,277v34M603,335h4M605,318v34M607,321h6M610,305v33M612,316h4M614,299v34M616,336h6M619,319v34M621,350h4M623,333v33M625,344h6M628,327v33M630,336h4M632,319v33M634,336h6M637,319v34M639,321h4M641,304v34M643,354h4M645,337v33M647,316h6M650,300v33M652,335h4M654,318v34M656,334h6M659,317v34M661,338h4M663,321v34M665,361h6M668,344v33M670,340h4M672,323v34M674,315h6M677,298v34M679,351h4M681,335v33M683,369h6M686,352v33M688,346h4M690,329v34M692,369h6M695,353v33M697,334h4M699,317v34M701,373h4M703,357v33M705,340h6M708,323v34M710,351h4M712,335v33M714,364h6M717,347v33M719,379h4M721,362v33M723,367h6M726,350v34M728,373h4M730,357v33M732,361h6M735,345v33M737,350h4M739,334v33M741,382h6M744,365v34M746,348h4M748,331v34M750,362h6M753,345v34M755,332h4M757,315v34M759,390h6M762,373v34M764,354h4M766,338v33M768,377h4M770,360v34M772,367h6M775,351v33M777,364h4M779,347v34M781,352h6M784,335v34M786,372h4M788,355v34M790,371h6M793,354v33M795,362h4M797,345v34M799,375h6M802,358v34M804,389h4M806,372v34M808,354h6M811,337v34M813,417h4M815,400v33M817,384h6M820,367v34M822,388h4M824,371v34M826,371h6M829,354v33M831,383h4M833,366v34M835,388h4M837,372v33M839,379h6M842,362v34M844,417h4M846,400v34M848,383h6M851,366v34M853,399h4M855,382v34M857,419h6M860,403v33M862,389h4M864,372v34M866,371h6M869,354v34M871,373h4M873,356v34M875,392h6M878,375v34M880,387h4M882,370v34M884,379h6M887,362v34M889,399h4M891,382v34M893,375h4M895,358v34M897,398h6M900,381v34M902,378h4M904,361v34M906,365h6M909,348v34M911,388h4M913,371v34M915,404h6M918,387v34M920,379h4M922,362v34M924,372h6M927,355v34M929,411h4M931,394v34M933,377h6M936,360v34M938,382h4M940,365v34M942,394h6M945,377v34M947,386h4M949,369v34M951,409h6M954,392v34M956,355h4M958,337v35" style="stroke: #00009a; stroke-width: 1;"></path>
    </g>
    <g>
     <path d="M67,448L71,446L74,443L78,441L81,438L85,435L89,432L92,429L96,425L99,421L103,417L106,412L110,406L114,399L117,390L121,380L124,366L128,349L131,326L135,295L139,255L142,204L146,146L149,94L153,62L156,64L160,98L164,150L167,204L171,250L174,285L178,311L181,330L185,343L189,353L192,360L196,365L199,369L203,371L206,373L210,375L214,376L217,376L221,376L224,376L228,376L232,375L235,375L239,374L242,373L246,372L249,371L253,370L257,369L260,368L264,367L267,366L271,365L274,364L278,362L282,361L285,360L289,358L292,357L296,356L299,354L303,353L307,352L310,350L314,349L317,347L321,346L324,344L328,343L332,342L335,340L339,339L342,337L346,336L349,334L353,333L357,331L360,330L364,328L367,327L371,325L374,324L378,323L382,321L385,320L389,318L392,317L396,315L399,314L403,312L407,311L410,309L414,308L417,306L421,305L424,303" style="fill: none; stroke: red; stroke-width: 2;"></path>
    </g>
   </svg>
   <g>
    <g transform="translate(0,640)">
     <path d="M0,0h960M0,-12V0M22,-12V0M45,-12V0M67,-24V0M89,-12V0M112,-12V0M134,-12V0M156,-24V0M179,-12V0M201,-12V0M223,-12V0M246,-24V0M268,-12V0M290,-12V0M313,-12V0M335,-24V0M357,-12V0M380,-12V0M402,-12V0M424,-24V0M447,-12V0M469,-12V0M491,-12V0M513,-24V0M536,-12V0M558,-12V0M580,-12V0M603,-24V0M625,-12V0M647,-12V0M670,-12V0M692,-24V0M714,-12V0M737,-12V0M759,-12V0M781,-24V0M804,-12V0M826,-12V0M848,-12V0M871,-24V0M893,-12V0M915,-12V0M938,-12V0" style="stroke: black; stroke-width: 1;"></path>
     <g font-family="Arial" font-size="28" space="preserve" fill="black" text-anchor="middle">
      <text dy=".8em" transform="translate(67,1)">
       1
      </text>
      <text dy=".8em" transform="translate(156,1)">
       1.02
      </text>
      <text dy=".8em" transform="translate(246,1)">
       1.04
      </text>
      <text dy=".8em" transform="translate(335,1)">
       1.06
      </text>
      <text dy=".8em" transform="translate(424,1)">
       1.08
      </text>
      <text dy=".8em" transform="translate(513,1)">
       1.10
      </text>
      <text dy=".8em" transform="translate(603,1)">
       1.12
      </text>
      <text dy=".8em" transform="translate(692,1)">
       1.14
      </text>
      <text dy=".8em" transform="translate(781,1)">
       1.16
      </text>
      <text dy=".8em" transform="translate(871,1)">
       1.18
      </text>
     </g>
    </g>
    <g>
     <path d="M0,0v640M36,640H0M18,620H0M18,600H0M18,580H0M18,560H0M36,540H0M18,519H0M18,499H0M18,479H0M18,459H0M36,439H0M18,419H0M18,399H0M18,379H0M18,359H0M36,339H0M18,319H0M18,298H0M18,278H0M18,258H0M36,238H0M18,218H0M18,198H0M18,178H0M18,158H0M36,138H0M18,118H0M18,97H0M18,77H0M18,57H0M36,37H0M18,17H0" style="stroke: black; stroke-width: 1;"></path>
     <g font-family="Arial" font-size="28" space="preserve" fill="black" text-anchor="end">
      <text dy=".4em" transform="translate(-4,640)">
       0
      </text>
      <text dy=".4em" transform="translate(-4,540)">
       500
      </text>
      <text dy=".4em" transform="translate(-4,439)">
       1000
      </text>
      <text dy=".4em" transform="translate(-4,339)">
       1500
      </text>
      <text dy=".4em" transform="translate(-4,238)">
       2000
      </text>
      <text dy=".4em" transform="translate(-4,138)">
       2500
      </text>
      <text dy=".4em" transform="translate(-4,37)">
       3000
      </text>
     </g>
    </g>
   </g>
  </g>
  <g transform="translate(120,4)" font-family="Arial" font-size="40" space="preserve">
   <text fill="black" text-anchor="middle" dy=".8em" transform="translate(480)">
    projection
   </text>
  </g>
  <g transform="translate(936,52)" font-family="Arial" font-size="20" space="preserve" fill="black">
   <path d="M0,0H240V128H0Z" style="fill: white; stroke: black; stroke-width: 1;"></path>
   <text text-anchor="middle" dy=".4em" transform="translate(120,16)">
    hSignal
   </text>
   <text text-anchor="start" dy=".4em" transform="translate(12,48)">
    Entries
   </text>
   <text text-anchor="end" dy=".4em" transform="translate(228,48)">
    73245.49
   </text>
   <text text-anchor="start" dy=".4em" transform="translate(12,80)">
    Mean
   </text>
   <text text-anchor="end" dy=".4em" transform="translate(228,80)">
    1.095
   </text>
   <text text-anchor="start" dy=".4em" transform="translate(12,112)">
    Std Dev
   </text>
   <text text-anchor="end" dy=".4em" transform="translate(228,112)">
    0.05745
   </text>
   <path d="M0,32h240" style="stroke: black; stroke-width: 1;"></path>
  </g>
 </g>
</svg>
